Sources/FrostedUI/Resources/Icons.xcassets/happyFacePlus16.imageset/happy-face-plus-16.svg

<svg width="16" height="16" viewBox="0 0 16 16" fill="none" xmlns="http://www.w3.org/2000/svg" data-fui-icon="true">
  <path
    d="M8 0C8.37367 0 8.74179 0.0254255 9.10254 0.0751953C9.51285 0.131806 9.79975 0.510585 9.74316 0.920898C9.68655 1.33123 9.30779 1.61813 8.89746 1.56152C8.60445 1.5211 8.30489 1.5 8 1.5C4.41015 1.5 1.5 4.41015 1.5 8C1.5 11.5899 4.41015 14.5 8 14.5C11.5899 14.5 14.5 11.5899 14.5 8C14.5 7.69511 14.4789 7.39555 14.4385 7.10254C14.3819 6.69221 14.6688 6.31345 15.0791 6.25684C15.4894 6.20025 15.8682 6.48715 15.9248 6.89746C15.9746 7.25821 16 7.62633 16 8C16 12.4183 12.4183 16 8 16C3.58172 16 0 12.4183 0 8C0 3.58172 3.58172 0 8 0ZM10.0791 9.91504C10.2643 9.54469 10.7146 9.39416 11.085 9.5791C11.4553 9.76428 11.6058 10.2146 11.4209 10.585L10.9004 10.3252C11.4208 10.5855 11.4201 10.5866 11.4199 10.5869L11.4189 10.5889C11.4185 10.5898 11.4176 10.5907 11.417 10.5918C11.4157 10.5944 11.4148 10.5982 11.4131 10.6016C11.4096 10.6082 11.4045 10.6157 11.3994 10.625C11.3891 10.644 11.3757 10.6691 11.3584 10.6982C11.3238 10.7564 11.2749 10.8339 11.21 10.9238C11.0805 11.103 10.8849 11.3365 10.6133 11.5693C10.0618 12.042 9.20597 12.5 8 12.5C6.79403 12.5 5.9382 12.042 5.38672 11.5693C5.11506 11.3365 4.91947 11.103 4.79004 10.9238C4.72511 10.8339 4.67623 10.7564 4.6416 10.6982C4.62426 10.6691 4.61093 10.644 4.60059 10.625C4.59552 10.6157 4.59036 10.6082 4.58691 10.6016C4.58517 10.5982 4.58435 10.5944 4.58301 10.5918L4.5791 10.5859C4.57928 10.5854 4.59275 10.5787 5.09961 10.3252L4.5791 10.585C4.39416 10.2146 4.54469 9.76428 4.91504 9.5791C5.28545 9.39416 5.73475 9.54469 5.91992 9.91504V9.91211L5.93066 9.93066C5.94486 9.95451 5.97025 9.99426 6.00684 10.0449C6.08051 10.1469 6.19754 10.2886 6.36328 10.4307C6.68681 10.7079 7.2061 11 8 11C8.7939 11 9.31319 10.7079 9.63672 10.4307C9.80246 10.2886 9.91949 10.1469 9.99316 10.0449C10.0297 9.99426 10.0551 9.95451 10.0693 9.93066L10.0791 9.91406V9.91504ZM5 6C5.55228 6 6 6.44772 6 7C6 7.55228 5.55228 8 5 8C4.44772 8 4 7.55228 4 7C4 6.44772 4.44772 6 5 6ZM11 6C11.5523 6 12 6.44772 12 7C12 7.55228 11.5523 8 11 8C10.4477 8 10 7.55228 10 7C10 6.44772 10.4477 6 11 6ZM13.25 0C13.6642 0 14 0.335786 14 0.75V2H15.25C15.6642 2 16 2.33579 16 2.75C16 3.16421 15.6642 3.5 15.25 3.5H14V4.75C14 5.16421 13.6642 5.5 13.25 5.5C12.8358 5.5 12.5 5.16421 12.5 4.75V3.5H11.25C10.8358 3.5 10.5 3.16421 10.5 2.75C10.5 2.33579 10.8358 2 11.25 2H12.5V0.75C12.5 0.335786 12.8358 0 13.25 0Z"
    fill="currentColor"
  />
</svg>

<svg xmlns="http://www.w3.org/2000/svg" width="16" height="16" fill="none" data-fui-icon="true" viewBox="0 0 16 16"><path fill="currentColor" d="M8 0q.561 0 1.103.075a.75.75 0 0 1-.206 1.487 6.5 6.5 0 1 0 5.541 5.541.75.75 0 0 1 1.487-.206Q16 7.44 16 8a8 8 0 1 1-8-8m2.08 9.915a.75.75 0 0 1 1.34.67l-.52-.26c.52.26.52.262.52.262l-.001.002-.002.003-.004.01-.014.023-.04.073a3 3 0 0 1-.149.226c-.13.179-.325.412-.597.645-.551.473-1.407.931-2.613.931s-2.062-.458-2.613-.93a3.8 3.8 0 0 1-.597-.646 3 3 0 0 1-.148-.226q-.026-.044-.041-.073l-.014-.023-.004-.01-.004-.006.52-.26-.52.259a.75.75 0 0 1 1.34-.67v-.003l.012.019q.022.037.076.114c.074.102.19.244.356.386.324.277.843.569 1.637.569s1.313-.292 1.637-.57a2.2 2.2 0 0 0 .432-.5zM5 6a1 1 0 1 1 0 2 1 1 0 0 1 0-2m6 0a1 1 0 1 1 0 2 1 1 0 0 1 0-2m2.25-6a.75.75 0 0 1 .75.75V2h1.25a.75.75 0 0 1 0 1.5H14v1.25a.75.75 0 0 1-1.5 0V3.5h-1.25a.75.75 0 0 1 0-1.5h1.25V.75a.75.75 0 0 1 .75-.75"/></svg>
